X:1
T:Salem (Harmonia), LM
T:Salem (Harmonia), LM
T:Anonymous, probably 19th Century
T:Public Domain Courtesy of the Cyber Hymnal™
C:Anonymous, probably 19th Century
Z:Public Domain
Z:Courtesy of the Cyber Hymnal™
%%score ( 1 2 ) ( 3 4 )
L:1/8
M:2/2
K:Bb
V:1 treble 
V:2 treble 
V:3 bass 
V:4 bass 
V:1
 [DG]4 | [DF]2 E2 D4 | ([CG]3 [DB]) [FA]2 [FA]2 | [DG]4 [DG]4 | [FA]2 [Fd]2 [Fc]4 | %5
 (B3 G) F2 [CG]2 | !fermata![DA]4 D4 | [DB]2 [Cc]2 [Dd]4 | (B2 G2) [FA]2 D2 | C4 D4 | %10
 B,2 [A,C]2 [B,D]4 | ([CG]3 [EB]) [DA]2 [DA]2 | !fermata![DG]4 |] %13
V:2
 x4 | x2 E2 D4 | x8 | x8 | x8 | G4 F2 x2 | x4 D4 | x8 | D4 D2 x2 | C4 D4 | B,2 x6 | x8 | x4 |] %13
V:3
 G,4 | [D,A,]2 [E,B,]2 [D,A,]4 | ([C,B,]3 [B,,G,]) [D,A,]2 [D,C]2 | [G,,D]4 [G,,D]4 | %4
 [D,C]2 [D,B,]2 [F,A,]4 | (G,2 A,B,) [A,C]2 (B,C) | !fermata![B,,D]4 [D,D]4 | %7
 [B,,B,]2 [C,A,]2 [D,G,]4 | [D,G,]4 [D,F,]2 [D,A,]2 | [C,C]4 A,4 | B,2 [F,C]2 [G,D]4 | %11
 ([D,B,]3 [E,G,]) [D,F,]2 [D,^F,]2 | !fermata![G,,G,]4 |] %13
V:4
 G,4 | x8 | x8 | x8 | x8 | G,4 G,2 x2 | x8 | x8 | x8 | x4 A,4 | B,2 x6 | x8 | x4 |] %13

